X:1
T:Sunset Over Foula
C:Ronnie Cooper
M:3/4
L:1/8
R:waltz
F:http://www.thesession.org/tunes/display/7348 2009-5-31
K:D
A2 \
| d4 e2 | d4 F2 | A6 | F4 A2 | B4- B>c | d4 F2 | A4- A>B | A4 A2 |
| f4 g2 | f4 e2 | d6 | A4 d2 | B4- B>c | d4 A<F | E4- E>F | E4 ||
A2 \
| d4 e2 | d4 F2 | A6 | F4 A2 | B4- B>c | d4 F2 | A4- A>B | A4 A2 |
| f4 g2 | f4 e2 | d6 | B4 dB | A4 d2 | f4 (3e>fe | d6- | d4 |]
